packages/ui-icons/svg/Line/masquerade.svg

<svg viewBox="0 0 1920 1920" version="1.1" xmlns="http://www.w3.org/2000/svg">
    <path d="M1411.76471,-5.68434189e-14 C1213.89176,-5.68434189e-14 1043.91529,114.861176 960,280.207059 C876.084706,114.861176 706.108235,-5.68434189e-14 508.235294,-5.68434189e-14 L0,-5.68434189e-14 L0,508.235294 C0,788.442353 228.028235,1016.47059 508.235294,1016.47059 L903.529412,1016.47059 L1016.47059,1016.47059 L1411.76471,1016.47059 C1572.25412,1016.47059 1713.88235,940.235294 1807.05882,823.792941 L1807.05882,1694.11765 C1807.05882,1756.46118 1756.46118,1807.05882 1694.11765,1807.05882 C1631.77412,1807.05882 1581.17647,1756.46118 1581.17647,1694.11765 L1581.17647,1129.41176 L1468.23529,1129.41176 L1468.23529,1694.11765 C1468.23529,1818.69176 1569.54353,1920 1694.11765,1920 C1818.69176,1920 1920,1818.69176 1920,1694.11765 L1920,508.235294 L1920,451.764706 L1920,-5.68434189e-14 L1411.76471,-5.68434189e-14 Z M903.529412,903.529412 L508.235294,903.529412 C290.258824,903.529412 112.941176,726.211765 112.941176,508.235294 L112.941176,112.941176 L508.235294,112.941176 C726.211765,112.941176 903.529412,290.258824 903.529412,508.235294 L903.529412,903.529412 Z M1807.05882,508.235294 C1807.05882,726.211765 1629.74118,903.529412 1411.76471,903.529412 L1016.47059,903.529412 L1016.47059,508.235294 C1016.47059,290.258824 1193.78824,112.941176 1411.76471,112.941176 L1807.05882,112.941176 L1807.05882,451.764706 L1807.05882,508.235294 Z M508.235294,564.705882 C434.597647,564.705882 371.802353,517.496471 348.536471,451.764706 L508.235294,451.764706 C581.872941,451.764706 644.668235,498.974118 667.934118,564.705882 L508.235294,564.705882 Z M508.235294,338.823529 L225.882353,338.823529 L225.882353,395.294118 C225.882353,551.04 352.489412,677.647059 508.235294,677.647059 L790.588235,677.647059 L790.588235,621.176471 C790.588235,465.430588 663.981176,338.823529 508.235294,338.823529 L508.235294,338.823529 Z M1129.41176,621.176471 L1129.41176,677.647059 L1411.76471,677.647059 C1567.51059,677.647059 1694.11765,551.04 1694.11765,395.294118 L1694.11765,338.823529 L1411.76471,338.823529 C1256.01882,338.823529 1129.41176,465.430588 1129.41176,621.176471 M1411.76471,564.705882 L1252.06588,564.705882 C1275.33176,498.974118 1338.12706,451.764706 1411.76471,451.764706 L1571.46353,451.764706 C1548.19765,517.496471 1485.40235,564.705882 1411.76471,564.705882" stroke="none" stroke-width="1" fill-rule="evenodd"/>
</svg>

<svg viewBox="0 0 1920 1920" version="1.1" xmlns="http://www.w3.org/2000/svg">
    <path d="M1411.765 0C1213.892 0 1043.915 114.861 960 280.207 876.085 114.861 706.108 0 508.235 0H0v508.235c0 280.207 228.028 508.236 508.235 508.236h903.53c160.49 0 302.117-76.236 395.294-192.678v870.325c0 62.343-50.598 112.94-112.941 112.94-62.344 0-112.942-50.597-112.942-112.94v-564.706h-112.94v564.706c0 124.574 101.308 225.882 225.882 225.882S1920 1818.692 1920 1694.118V0h-508.235zM903.529 903.53H508.235c-217.976 0-395.294-177.318-395.294-395.295V112.941h395.294c217.977 0 395.294 177.318 395.294 395.294V903.53zm903.53-395.295c0 217.977-177.318 395.294-395.294 395.294H1016.47V508.235c0-217.976 177.317-395.294 395.294-395.294h395.294v395.294zm-1298.824 56.47c-73.637 0-136.433-47.209-159.699-112.94h159.7c73.637 0 136.432 47.21 159.698 112.94H508.235zm0-225.881H225.882v56.47c0 155.746 126.607 282.353 282.353 282.353h282.353v-56.47c0-155.746-126.607-282.353-282.353-282.353zm621.177 282.352v56.471h282.353c155.746 0 282.353-126.607 282.353-282.353v-56.47h-282.353c-155.746 0-282.353 126.607-282.353 282.352m282.353-56.47h-159.7c23.267-65.732 86.062-112.941 159.7-112.941h159.699c-23.266 65.731-86.062 112.94-159.7 112.94" stroke="none" stroke-width="1" fill-rule="evenodd"/>
</svg>
